img/why4.svg

<svg width="56" height="56" viewBox="0 0 56 56" fill="none" xmlns="http://www.w3.org/2000/svg">
    <g clip-path="url(#clip0_422_597)">
        <path d="M51.3329 3.73333H41.0662V1.86667C41.0662 1.3716 40.8695 0.896802 40.5195 0.546734C40.1694 0.196666 39.6946 0 39.1995 0L21.8526 0C21.3579 0.00163003 20.8837 0.198134 20.5329 0.546933L17.3465 3.73333H4.66621C3.9236 3.73333 3.21141 4.02833 2.68631 4.55343C2.16121 5.07854 1.86621 5.79073 1.86621 6.53333V42C1.86621 42.7426 2.16121 43.4548 2.68631 43.9799C3.21141 44.505 3.9236 44.8 4.66621 44.8H17.7329V47.1007L12.5482 50.554C12.51 50.5826 12.4738 50.6138 12.4399 50.6473C12.425 50.6613 12.4091 50.6716 12.3961 50.6856C12.3247 50.7607 12.2664 50.8471 12.2234 50.9413C12.2131 50.9628 12.2066 50.9843 12.1982 51.0067C12.157 51.1108 12.1349 51.2214 12.1329 51.3333V54.1333C12.1329 54.6284 12.3295 55.1032 12.6796 55.4533C13.0297 55.8033 13.5045 56 13.9995 56H41.9995C42.4946 56 42.9694 55.8033 43.3195 55.4533C43.6695 55.1032 43.8662 54.6284 43.8662 54.1333V51.3333C43.8639 51.2224 43.8417 51.1127 43.8009 51.0095C43.7925 50.9871 43.7859 50.9656 43.7757 50.9441C43.7327 50.8499 43.6744 50.7635 43.603 50.6884C43.5899 50.6744 43.5741 50.6641 43.5591 50.6501C43.5253 50.6166 43.4891 50.5854 43.4509 50.5568L38.2662 47.1007V44.8H51.3329C52.0755 44.8 52.7877 44.505 53.3128 43.9799C53.8379 43.4548 54.1329 42.7426 54.1329 42V6.53333C54.1329 5.79073 53.8379 5.07854 53.3128 4.55343C52.7877 4.02833 52.0755 3.73333 51.3329 3.73333V3.73333ZM41.0662 9.33333H48.5329V31.7333H41.0662V9.33333ZM39.1995 31.7333H16.7995V7.46667H20.5329C21.0279 7.46667 21.5027 7.27 21.8528 6.91993C22.2029 6.56986 22.3995 6.09507 22.3995 5.6V1.86667H39.1995V31.7333ZM14.9329 31.7333H7.46621V9.33333H14.9329V31.7333ZM18.1193 5.6L20.5329 3.1864V5.6H18.1193ZM4.66621 5.6H15.4798C15.131 5.95085 14.9345 6.42501 14.9329 6.91973V7.46667H7.46621C6.97114 7.46667 6.49635 7.66333 6.14628 8.0134C5.79621 8.36347 5.59954 8.83826 5.59954 9.33333V31.7333C5.59954 32.2284 5.79621 32.7032 6.14628 33.0533C6.49635 33.4033 6.97114 33.6 7.46621 33.6H48.5329C49.028 33.6 49.5027 33.4033 49.8528 33.0533C50.2029 32.7032 50.3995 32.2284 50.3995 31.7333V9.33333C50.3995 8.83826 50.2029 8.36347 49.8528 8.0134C49.5027 7.66333 49.028 7.46667 48.5329 7.46667H41.0662V5.6H51.3329C51.5804 5.6 51.8178 5.69833 51.9928 5.87337C52.1679 6.0484 52.2662 6.2858 52.2662 6.53333V35.4667H3.73288V6.53333C3.73288 6.2858 3.83121 6.0484 4.00624 5.87337C4.18128 5.69833 4.41868 5.6 4.66621 5.6V5.6ZM39.8529 50.4H16.1462L18.9462 48.5333H37.0529L39.8529 50.4ZM13.9995 54.1333V52.2667H41.9995V54.1333H13.9995ZM36.3995 46.6667H19.5995V44.8H36.3995V46.6667ZM51.3329 42.9333H4.66621C4.41868 42.9333 4.18128 42.835 4.00624 42.66C3.83121 42.4849 3.73288 42.2475 3.73288 42V37.3333H52.2662V42C52.2662 42.2475 52.1679 42.4849 51.9928 42.66C51.8178 42.835 51.5804 42.9333 51.3329 42.9333Z" fill="white"/>
        <path d="M29.8659 39.2H26.1326C25.885 39.2 25.6476 39.2983 25.4726 39.4734C25.2976 39.6484 25.1992 39.8858 25.1992 40.1333C25.1992 40.3809 25.2976 40.6183 25.4726 40.7933C25.6476 40.9683 25.885 41.0667 26.1326 41.0667H29.8659C30.1134 41.0667 30.3508 40.9683 30.5259 40.7933C30.7009 40.6183 30.7992 40.3809 30.7992 40.1333C30.7992 39.8858 30.7009 39.6484 30.5259 39.4734C30.3508 39.2983 30.1134 39.2 29.8659 39.2Z" fill="white"/>
        <path d="M33.5995 12.1333C33.7633 12.1335 33.9242 12.1767 34.066 12.2588C34.2078 12.3408 34.3255 12.4587 34.4073 12.6006C34.4891 12.7425 34.5321 12.9034 34.532 13.0672C34.5319 13.231 34.4887 13.3919 34.4067 13.5337C34.3247 13.6755 34.2069 13.7933 34.065 13.8751C33.9231 13.957 33.7622 14 33.5984 14C33.4346 13.9999 33.2737 13.9568 33.1319 13.8749C32.99 13.793 32.8722 13.6752 32.7903 13.5333C32.6627 13.3269 32.4597 13.1784 32.2243 13.1192C31.989 13.06 31.7399 13.0948 31.5297 13.2162C31.3196 13.3376 31.165 13.536 31.0988 13.7695C31.0325 14.0029 31.0598 14.253 31.1747 14.4666C31.5131 15.0352 32.0423 15.4651 32.6681 15.68V15.8666C32.6681 16.1142 32.7664 16.3516 32.9414 16.5266C33.1165 16.7016 33.3539 16.8 33.6014 16.8C33.8489 16.8 34.0863 16.7016 34.2614 16.5266C34.4364 16.3516 34.5347 16.1142 34.5347 15.8666V15.6949C35.1571 15.4757 35.6818 15.0432 36.0159 14.4741C36.3499 13.9051 36.4717 13.2361 36.3596 12.5858C36.2476 11.9355 35.909 11.3459 35.4038 10.9214C34.8986 10.4969 34.2594 10.2649 33.5995 10.2666C33.4358 10.2665 33.2749 10.2232 33.1331 10.1412C32.9913 10.0592 32.8736 9.9413 32.7918 9.79939C32.71 9.65748 32.667 9.49654 32.6671 9.33274C32.6672 9.16895 32.7104 9.00806 32.7924 8.86625C32.8744 8.72444 32.9922 8.6067 33.1341 8.52485C33.276 8.443 33.4369 8.39994 33.6007 8.39998C33.7645 8.40002 33.9254 8.44316 34.0672 8.52508C34.2091 8.60699 34.3268 8.72479 34.4087 8.86664C34.5364 9.073 34.7394 9.22153 34.9748 9.28073C35.2101 9.33993 35.4592 9.30515 35.6693 9.18377C35.8795 9.06238 36.034 8.86393 36.1003 8.6305C36.1666 8.39706 36.1393 8.14699 36.0243 7.93331C35.6864 7.36513 35.1579 6.9352 34.5329 6.71998V6.53331C34.5329 6.28577 34.4345 6.04838 34.2595 5.87334C34.0845 5.69831 33.8471 5.59998 33.5995 5.59998C33.352 5.59998 33.1146 5.69831 32.9396 5.87334C32.7645 6.04838 32.6662 6.28577 32.6662 6.53331V6.70504C32.044 6.92421 31.5194 7.35652 31.1854 7.92541C30.8513 8.49429 30.7294 9.16304 30.8412 9.81321C30.953 10.4634 31.2913 11.053 31.7961 11.4776C32.301 11.9023 32.9398 12.1346 33.5995 12.1333V12.1333Z" fill="white"/>
        <path d="M33.5995 25.2C33.7633 25.2002 33.9242 25.2434 34.066 25.3255C34.2078 25.4075 34.3255 25.5254 34.4073 25.6673C34.4891 25.8092 34.5321 25.9701 34.532 26.1339C34.5319 26.2977 34.4887 26.4586 34.4067 26.6004C34.3247 26.7422 34.2069 26.86 34.065 26.9418C33.9231 27.0237 33.7622 27.0667 33.5984 27.0667C33.4346 27.0666 33.2737 27.0235 33.1319 26.9416C32.99 26.8597 32.8722 26.7419 32.7903 26.6C32.6627 26.3937 32.4597 26.2451 32.2243 26.1859C31.989 26.1267 31.7399 26.1615 31.5297 26.2829C31.3196 26.4043 31.165 26.6027 31.0988 26.8362C31.0325 27.0696 31.0598 27.3197 31.1747 27.5334C31.5131 28.1019 32.0423 28.5318 32.6681 28.7467V28.9334C32.6681 29.1809 32.7664 29.4183 32.9414 29.5933C33.1165 29.7684 33.3539 29.8667 33.6014 29.8667C33.8489 29.8667 34.0863 29.7684 34.2614 29.5933C34.4364 29.4183 34.5347 29.1809 34.5347 28.9334V28.7616C35.1571 28.5424 35.6818 28.1099 36.0159 27.5409C36.3499 26.9718 36.4717 26.3028 36.3596 25.6525C36.2476 25.0022 35.909 24.4126 35.4038 23.9881C34.8986 23.5636 34.2594 23.3317 33.5995 23.3334C33.4358 23.3332 33.2749 23.2899 33.1331 23.2079C32.9913 23.1259 32.8736 23.008 32.7918 22.8661C32.71 22.7242 32.667 22.5632 32.6671 22.3995C32.6672 22.2357 32.7104 22.0748 32.7924 21.933C32.8744 21.7911 32.9922 21.6734 33.1341 21.5916C33.276 21.5097 33.4369 21.4666 33.6007 21.4667C33.7645 21.4667 33.9254 21.5099 34.0672 21.5918C34.2091 21.6737 34.3268 21.7915 34.4087 21.9334C34.5364 22.1397 34.7394 22.2882 34.9748 22.3474C35.2101 22.4066 35.4592 22.3719 35.6693 22.2505C35.8795 22.1291 36.034 21.9306 36.1003 21.6972C36.1666 21.4638 36.1393 21.2137 36.0243 21C35.6864 20.4318 35.1579 20.0019 34.5329 19.7867V19.6C34.5329 19.3525 34.4345 19.1151 34.2595 18.9401C34.0845 18.765 33.8471 18.6667 33.5995 18.6667C33.352 18.6667 33.1146 18.765 32.9396 18.9401C32.7645 19.1151 32.6662 19.3525 32.6662 19.6V19.7718C32.044 19.9909 31.5194 20.4232 31.1854 20.9921C30.8513 21.561 30.7294 22.2298 30.8412 22.8799C30.953 23.5301 31.2913 24.1197 31.7961 24.5444C32.301 24.969 32.9398 25.2013 33.5995 25.2V25.2Z" fill="white"/>
        <path d="M20.5329 10.8136L20.2595 10.5402C20.0834 10.3701 19.8477 10.2761 19.603 10.2782C19.3582 10.2803 19.1241 10.3785 18.9511 10.5515C18.7781 10.7246 18.6799 10.9587 18.6778 11.2034C18.6756 11.4481 18.7697 11.6839 18.9397 11.8599L19.8731 12.7932C20.0481 12.9682 20.2854 13.0665 20.5329 13.0665C20.7804 13.0665 21.0178 12.9682 21.1928 12.7932L23.9928 9.99323C24.1628 9.8172 24.2569 9.58144 24.2548 9.33672C24.2526 9.09201 24.1545 8.85791 23.9814 8.68487C23.8084 8.51182 23.5743 8.41366 23.3296 8.41153C23.0849 8.40941 22.8491 8.50348 22.6731 8.6735L20.5329 10.8136Z" fill="white"/>
        <path d="M20.5327 16.8C20.7802 16.8 21.0176 16.7017 21.1927 16.5267C21.3677 16.3516 21.466 16.1142 21.466 15.8667C21.466 15.6191 21.3677 15.3817 21.1927 15.2067C21.0176 15.0317 20.7802 14.9333 20.5327 14.9333H19.5993C19.3518 14.9333 19.1144 15.0317 18.9394 15.2067C18.7643 15.3817 18.666 15.6191 18.666 15.8667C18.666 16.1142 18.7643 16.3516 18.9394 16.5267C19.1144 16.7017 19.3518 16.8 19.5993 16.8H20.5327Z" fill="white"/>
        <path d="M23.333 15.8667C23.333 16.1142 23.4313 16.3516 23.6064 16.5267C23.7814 16.7017 24.0188 16.8 24.2663 16.8H27.9997C28.2472 16.8 28.4846 16.7017 28.6596 16.5267C28.8347 16.3516 28.933 16.1142 28.933 15.8667C28.933 15.6191 28.8347 15.3817 28.6596 15.2067C28.4846 15.0317 28.2472 14.9333 27.9997 14.9333H24.2663C24.0188 14.9333 23.7814 15.0317 23.6064 15.2067C23.4313 15.3817 23.333 15.6191 23.333 15.8667Z" fill="white"/>
        <path d="M19.8731 25.8599C20.0481 26.0349 20.2854 26.1331 20.5329 26.1331C20.7804 26.1331 21.0178 26.0349 21.1928 25.8599L23.9928 23.0599C24.1628 22.8839 24.2569 22.6481 24.2548 22.4034C24.2526 22.1587 24.1545 21.9246 23.9814 21.7515C23.8084 21.5785 23.5743 21.4803 23.3296 21.4782C23.0849 21.4761 22.8491 21.5701 22.6731 21.7401L20.5329 23.8803L20.2595 23.6068C20.0834 23.4368 19.8477 23.3427 19.603 23.3449C19.3582 23.347 19.1241 23.4451 18.9511 23.6182C18.7781 23.7912 18.6799 24.0253 18.6778 24.27C18.6756 24.5148 18.7697 24.7505 18.9397 24.9265L19.8731 25.8599Z" fill="white"/>
        <path d="M20.5327 28H19.5993C19.3518 28 19.1144 28.0983 18.9394 28.2734C18.7643 28.4484 18.666 28.6858 18.666 28.9333C18.666 29.1809 18.7643 29.4183 18.9394 29.5933C19.1144 29.7683 19.3518 29.8667 19.5993 29.8667H20.5327C20.7802 29.8667 21.0176 29.7683 21.1927 29.5933C21.3677 29.4183 21.466 29.1809 21.466 28.9333C21.466 28.6858 21.3677 28.4484 21.1927 28.2734C21.0176 28.0983 20.7802 28 20.5327 28Z" fill="white"/>
        <path d="M27.9997 28H24.2663C24.0188 28 23.7814 28.0983 23.6064 28.2734C23.4313 28.4484 23.333 28.6858 23.333 28.9333C23.333 29.1809 23.4313 29.4183 23.6064 29.5933C23.7814 29.7683 24.0188 29.8667 24.2663 29.8667H27.9997C28.2472 29.8667 28.4846 29.7683 28.6596 29.5933C28.8347 29.4183 28.933 29.1809 28.933 28.9333C28.933 28.6858 28.8347 28.4484 28.6596 28.2734C28.4846 28.0983 28.2472 28 27.9997 28Z" fill="white"/>
    </g>
    <defs>
        <clipPath id="clip0_422_597">
            <rect width="56" height="56" fill="white"/>
        </clipPath>
    </defs>
</svg>

<svg width="56" height="56" fill="none" xmlns="http://www.w3.org/2000/svg"><g clip-path="url(#clip0_422_597)" fill="#fff"><path d="M51.333 3.733H41.066V1.867A1.867 1.867 0 0039.2 0H21.854a1.88 1.88 0 00-1.32.547l-3.187 3.186H4.666a2.8 2.8 0 00-2.8 2.8V42a2.8 2.8 0 002.8 2.8h13.067v2.3l-5.185 3.454c-.038.029-.074.06-.108.093-.015.014-.03.025-.044.039a.934.934 0 00-.173.255c-.01.022-.016.043-.025.066a.933.933 0 00-.065.326v2.8A1.867 1.867 0 0014 56h28a1.867 1.867 0 001.866-1.867v-2.8a.934.934 0 00-.065-.323c-.009-.023-.015-.044-.025-.066a.934.934 0 00-.173-.256c-.013-.014-.029-.024-.044-.038a1.035 1.035 0 00-.108-.093L38.266 47.1v-2.3h13.067a2.8 2.8 0 002.8-2.8V6.533a2.8 2.8 0 00-2.8-2.8zm-10.267 5.6h7.467v22.4h-7.467v-22.4zm-1.867 22.4H16.8V7.467h3.734A1.867 1.867 0 0022.399 5.6V1.867h16.8v29.866zm-24.266 0H7.466v-22.4h7.467v22.4zM18.119 5.6l2.414-2.414V5.6h-2.414zm-13.453 0H15.48a1.88 1.88 0 00-.547 1.32v.547H7.466A1.867 1.867 0 005.6 9.333v22.4A1.867 1.867 0 007.466 33.6h41.067a1.867 1.867 0 001.867-1.867v-22.4a1.866 1.866 0 00-1.867-1.866h-7.467V5.6h10.267a.933.933 0 01.933.933v28.934H3.733V6.533a.933.933 0 01.933-.933zm35.187 44.8H16.146l2.8-1.867h18.107l2.8 1.867zm-25.854 3.733v-1.866h28v1.866H14zm22.4-7.466H19.6V44.8h16.8v1.867zm14.934-3.734H4.666A.933.933 0 013.733 42v-4.667h48.533V42a.933.933 0 01-.933.933z"/><path d="M29.866 39.2h-3.733a.933.933 0 100 1.867h3.733a.934.934 0 000-1.867zM33.6 12.133a.933.933 0 11-.81 1.4.933.933 0 00-1.615.934c.338.568.867.998 1.493 1.213v.187a.933.933 0 101.867 0v-.172a2.794 2.794 0 00-.935-5.428.933.933 0 11.809-1.4.933.933 0 001.615-.934 2.793 2.793 0 00-1.491-1.213v-.187a.934.934 0 00-1.867 0v.172a2.793 2.793 0 00.934 5.428zm0 13.067a.933.933 0 11-.81 1.4.933.933 0 00-1.615.933 2.79 2.79 0 001.493 1.214v.186a.933.933 0 101.867 0v-.171a2.794 2.794 0 00-.935-5.429.934.934 0 11.809-1.4.933.933 0 001.615-.933 2.793 2.793 0 00-1.491-1.213V19.6a.933.933 0 00-1.867 0v.172A2.793 2.793 0 0033.6 25.2zM20.533 10.814l-.274-.274a.933.933 0 00-1.32 1.32l.934.933a.933.933 0 001.32 0l2.8-2.8a.934.934 0 00-1.32-1.32l-2.14 2.14zm0 5.986a.934.934 0 000-1.867h-.934a.933.933 0 000 1.867h.934zm2.8-.933a.933.933 0 00.933.933H28a.933.933 0 100-1.867h-3.734a.933.933 0 00-.933.934zm-3.46 9.993a.933.933 0 001.32 0l2.8-2.8a.934.934 0 00-1.32-1.32l-2.14 2.14-.274-.273a.933.933 0 00-1.32 1.32l.934.933zm.66 2.14h-.934a.933.933 0 100 1.867h.934a.934.934 0 000-1.867zM28 28h-3.734a.933.933 0 100 1.867H28A.933.933 0 0028 28z"/></g><defs><clipPath id="clip0_422_597"><path fill="#fff" d="M0 0h56v56H0z"/></clipPath></defs></svg>
